X: 19363
T: Jack's Delight
R: hornpipe
M: 4/4
K: Dmajor
|:A2|d2 d2 c>ec>A|d2 f>d A2 e>f|g>fg>f e>fe>d|c>ed>B A>Bc>A|
d2 d2 c>ec>A|d2 f>d A2 e>f|g>fg>e c>AB>c|d2 d2 d2:|
|:A>G|F>AF>A d>AF>A|A>GF>G E2 E>F|G>BG>B e>cd>B|c>AB>^G A2 A>=G|
F>AF>A d>AF>A|G>BG>B d>BG>B|A>ge>d c>AB>c|d2 f2 d2:|

